apps/scalable/photofilmstrip.svg

<svg xmlns="http://www.w3.org/2000/svg" style="isolation:isolate" width="256" height="256"><defs><filter id="a" width="270.648" height="254.338" x="-7.32" y="2.95" filterUnits="userSpaceOnUse"><feGaussianBlur xmlns="http://www.w3.org/2000/svg" in="SourceGraphic" stdDeviation="4.294"/><feOffset xmlns="http://www.w3.org/2000/svg" dy="4" result="pf_100_offsetBlur"/><feFlood xmlns="http://www.w3.org/2000/svg" flood-opacity=".4"/><feComposite xmlns="http://www.w3.org/2000/svg" in2="pf_100_offsetBlur" operator="in" result="pf_100_dropShadow"/><feBlend xmlns="http://www.w3.org/2000/svg" in="SourceGraphic" in2="pf_100_dropShadow"/></filter></defs><path fill="#1A1A1A" d="M165.685 11.947c74.055 0 84.639 10.557 84.639 84.544v59.251c0 73.986-10.584 84.543-84.639 84.543h-75.37c-74.055 0-84.639-10.557-84.639-84.543V96.491c0-73.987 10.584-84.544 84.639-84.544h75.37z" filter="url(#a)"/><path fill="#FFF" d="M128 11.947v228.338h37.685c74.055 0 84.639-10.557 84.639-84.543V96.491c0-73.987-10.584-84.544-84.639-84.544H128z" opacity=".2"/><g opacity=".4"><linearGradient id="b" x1=".517" x2=".517" y2="1"><stop offset="0%" stop-color="#fff"/><stop offset="12.5%" stop-opacity=".098" stop-color="#fff"/><stop offset="92.5%" stop-opacity=".098"/><stop offset="100%" stop-opacity=".498"/></linearGradient><path fill="none" stroke="url(#b)" stroke-linecap="round" stroke-linejoin="round" stroke-width="4.077" d="M165.685 11.947c74.055 0 84.639 10.557 84.639 84.544v59.251c0 73.986-10.584 84.543-84.639 84.543h-75.37c-74.055 0-84.639-10.557-84.639-84.543V96.491c0-73.987 10.584-84.544 84.639-84.544h75.37z" vector-effect="non-scaling-stroke"/></g><g opacity=".4"><linearGradient id="c" x1=".5" x2=".018" y1="1" y2="1" gradientTransform="matrix(181.197 0 0 198.291 42.103 28.855)" gradientUnits="userSpaceOnUse"><stop offset="0%" stop-opacity=".972" stop-color="#fff"/><stop offset="64.572%" stop-opacity=".916" stop-color="#fff"/><stop offset="100%" stop-opacity="0" stop-color="#fff"/></linearGradient><path fill="url(#c)" d="M42.103 224.059a27.321 27.321 0 0 0 3.238 3.086h7.018v-17.094H42.103v14.008zm0-178.11h10.256V28.855h-7.018a27.321 27.321 0 0 0-3.238 3.086v14.008zm17.094 181.196h10.256v-17.094H59.197v17.094zm0-181.196h10.256V28.855H59.197v17.094zm17.094 181.196h10.256v-17.094H76.291v17.094zm0-181.196h10.256V28.855H76.291v17.094zm17.094 181.196h10.256v-17.094H93.385v17.094zm0-181.196h10.256V28.855H93.385v17.094zm17.094 181.196h10.256v-17.094h-10.256v17.094zm0-181.196h10.256V28.855h-10.256v17.094zm17.094 181.196h10.256v-17.094h-10.256v17.094zm0-181.196h10.256V28.855h-10.256v17.094zm17.094 181.196h10.256v-17.094h-10.256v17.094zm0-181.196h10.256V28.855h-10.256v17.094zm17.094 181.196h10.256v-17.094h-10.256v17.094zm0-181.196h10.256V28.855h-10.256v17.094zm17.094 181.196h10.256v-17.094h-10.256v17.094zm0-181.196h10.256V28.855h-10.256v17.094zm17.094 181.196h10.256v-17.094h-10.256v17.094zm0-181.196h10.256V28.855h-10.256v17.094zm17.094 181.196h7.018a27.321 27.321 0 0 0 3.238-3.086v-14.008h-10.256v17.094zm0-181.196h10.256V31.941a27.321 27.321 0 0 0-3.238-3.086h-7.018v17.094z"/></g><path fill="none" d="M117.877 68.393L102.84 99.016v25.32a128.112 128.112 0 0 1-6.825 7.372c-7.907 7.907-16.772 14.823-22.703 16.8l-9.989-9.976-30.622 15.038v72.943h109.402V90.803c-6.589-14.293-13.833-19.625-24.226-22.41zm-41.693 97.864c.002-.003.01.002.013 0a206.508 206.508 0 0 1-3.379 2.056c1.135-.677 2.249-1.36 3.365-2.056h.001zm-10.297 6.009c.005-.002.011.002.013 0a221.914 221.914 0 0 1-3.552 1.897c1.19-.623 2.367-1.256 3.539-1.897z" opacity=".05"/><path fill="#090909" d="M118.421 142.174c-11.34 18.324-36.454 24.597-56.089 14.013-19.638-10.574-26.367-34.002-15.029-52.326l71.118 38.313z" opacity=".2"/><path fill="#EAB305" d="M118.421 137.385c-11.34 18.323-36.454 24.597-56.089 14.013-19.638-10.574-26.367-34.003-15.029-52.326l71.118 38.313z"/><path fill="#2C2C2C" d="M80.633 117.031v1.197c-2.068 10.561 2.005 23.182 12.506 37.079.12-.029.244-.044.364-.075-5.125-9.784-4.288-20.691.702-30.896l-13.572-7.305z"/><path fill="#090909" d="M137.578 142.174c11.341 18.323 36.455 24.597 56.09 14.013 19.638-10.574 26.367-34.003 15.029-52.326l-71.119 38.313z" opacity=".2"/><path fill="#EAB305" d="M137.578 137.385c11.341 18.323 36.455 24.597 56.09 14.013 19.638-10.574 26.367-34.003 15.029-52.326l-71.119 38.313z"/><path fill="#2C2C2C" d="M175.367 117.031v1.197c2.068 10.561-2.005 23.181-12.506 37.078-.12-.028-.244-.044-.364-.075 5.125-9.783 4.288-20.69-.702-30.895l13.572-7.305z"/></svg>

<svg xmlns="http://www.w3.org/2000/svg" style="isolation:isolate" width="256" height="256" viewBox="0 0 256 256">
 <defs>
  <filter id="Ab9gtvVZotmLARwsG70zGCDaHpo94QM5" width="270.648" height="254.338" x="-7.32" y="2.95" filterUnits="userSpaceOnUse">
   <feGaussianBlur xmlns="http://www.w3.org/2000/svg" in="SourceGraphic" stdDeviation="4.294"/>
   <feOffset xmlns="http://www.w3.org/2000/svg" dx="0" dy="4" result="pf_100_offsetBlur"/>
   <feFlood xmlns="http://www.w3.org/2000/svg" flood-opacity=".4"/>
   <feComposite xmlns="http://www.w3.org/2000/svg" in2="pf_100_offsetBlur" operator="in" result="pf_100_dropShadow"/>
   <feBlend xmlns="http://www.w3.org/2000/svg" in="SourceGraphic" in2="pf_100_dropShadow" mode="normal"/>
  </filter>
 </defs>
 <g filter="url(#Ab9gtvVZotmLARwsG70zGCDaHpo94QM5)">
  <path fill="#1A1A1A" d="M 165.685 11.947 C 239.74 11.947 250.324 22.504 250.324 96.491 L 250.324 155.742 C 250.324 229.728 239.74 240.285 165.685 240.285 L 90.315 240.285 C 16.26 240.285 5.676 229.728 5.676 155.742 L 5.676 96.491 C 5.676 22.504 16.26 11.947 90.315 11.947 L 165.685 11.947 Z"/>
 </g>
 <g opacity=".2">
  <path fill="#FFFFFF" d="M 128 11.947 L 128 240.285 L 165.685 240.285 C 239.74 240.285 250.324 229.728 250.324 155.742 L 250.324 96.491 C 250.324 22.504 239.74 11.947 165.685 11.947 L 128 11.947 Z"/>
 </g>
 <g opacity=".4">
  <linearGradient id="_lgradient_294" x1=".517" x2=".517" y1="0" y2="1">
   <stop offset="0%" style="stop-color:rgb(255,255,255)"/>
   <stop offset="12.5%" stop-opacity=".098" style="stop-color:rgb(255,255,255)"/>
   <stop offset="92.5%" stop-opacity=".098" style="stop-color:rgb(0,0,0)"/>
   <stop offset="100%" stop-opacity=".498" style="stop-color:rgb(0,0,0)"/>
  </linearGradient>
  <path fill="none" stroke="url(#_lgradient_294)" stroke-linecap="round" stroke-linejoin="round" stroke-width="4.077" d="M 165.685 11.947 C 239.74 11.947 250.324 22.504 250.324 96.491 L 250.324 155.742 C 250.324 229.728 239.74 240.285 165.685 240.285 L 90.315 240.285 C 16.26 240.285 5.676 229.728 5.676 155.742 L 5.676 96.491 C 5.676 22.504 16.26 11.947 90.315 11.947 L 165.685 11.947 Z" vector-effect="non-scaling-stroke"/>
 </g>
 <g>
  <g opacity=".4">
   <linearGradient id="_lgradient_295" x1=".5" x2=".018" y1="1" y2="1" gradientTransform="matrix(181.197,0,0,198.291,42.103,28.855)" gradientUnits="userSpaceOnUse">
    <stop offset="0%" stop-opacity=".972" style="stop-color:rgb(255,255,255)"/>
    <stop offset="64.572%" stop-opacity=".916" style="stop-color:rgb(255,255,255)"/>
    <stop offset="100%" stop-opacity="0" style="stop-color:rgb(255,255,255)"/>
   </linearGradient>
   <path fill="url(#_lgradient_295)" d="M 42.103 224.059 C 43.096 225.174 44.173 226.201 45.341 227.145 L 52.359 227.145 L 52.359 210.051 L 42.103 210.051 L 42.103 224.059 Z M 42.103 45.949 L 52.359 45.949 L 52.359 28.855 L 45.341 28.855 C 44.173 29.799 43.096 30.826 42.103 31.941 L 42.103 45.949 Z M 59.197 227.145 L 69.453 227.145 L 69.453 210.051 L 59.197 210.051 L 59.197 227.145 Z M 59.197 45.949 L 69.453 45.949 L 69.453 28.855 L 59.197 28.855 L 59.197 45.949 Z M 76.291 227.145 L 86.547 227.145 L 86.547 210.051 L 76.291 210.051 L 76.291 227.145 Z M 76.291 45.949 L 86.547 45.949 L 86.547 28.855 L 76.291 28.855 L 76.291 45.949 Z M 93.385 227.145 L 103.641 227.145 L 103.641 210.051 L 93.385 210.051 L 93.385 227.145 Z M 93.385 45.949 L 103.641 45.949 L 103.641 28.855 L 93.385 28.855 L 93.385 45.949 Z M 110.479 227.145 L 120.735 227.145 L 120.735 210.051 L 110.479 210.051 L 110.479 227.145 Z M 110.479 45.949 L 120.735 45.949 L 120.735 28.855 L 110.479 28.855 L 110.479 45.949 Z M 127.573 227.145 L 137.829 227.145 L 137.829 210.051 L 127.573 210.051 L 127.573 227.145 Z M 127.573 45.949 L 137.829 45.949 L 137.829 28.855 L 127.573 28.855 L 127.573 45.949 Z M 144.667 227.145 L 154.923 227.145 L 154.923 210.051 L 144.667 210.051 L 144.667 227.145 Z M 144.667 45.949 L 154.923 45.949 L 154.923 28.855 L 144.667 28.855 L 144.667 45.949 Z M 161.761 227.145 L 172.017 227.145 L 172.017 210.051 L 161.761 210.051 L 161.761 227.145 Z M 161.761 45.949 L 172.017 45.949 L 172.017 28.855 L 161.761 28.855 L 161.761 45.949 Z M 178.855 227.145 L 189.111 227.145 L 189.111 210.051 L 178.855 210.051 L 178.855 227.145 Z M 178.855 45.949 L 189.111 45.949 L 189.111 28.855 L 178.855 28.855 L 178.855 45.949 Z M 195.949 227.145 L 206.205 227.145 L 206.205 210.051 L 195.949 210.051 L 195.949 227.145 Z M 195.949 45.949 L 206.205 45.949 L 206.205 28.855 L 195.949 28.855 L 195.949 45.949 Z M 213.043 227.145 L 220.061 227.145 C 221.229 226.201 222.306 225.174 223.299 224.059 L 223.299 210.051 L 213.043 210.051 L 213.043 227.145 Z M 213.043 45.949 L 223.299 45.949 L 223.299 31.941 C 222.306 30.826 221.229 29.799 220.061 28.855 L 213.043 28.855 L 213.043 45.949 Z"/>
  </g>
  <g opacity=".05">
   <path fill="none" d="M 117.877 68.393 L 102.84 99.016 L 102.84 124.336 C 100.729 126.81 98.421 129.302 96.015 131.708 C 88.108 139.615 79.243 146.531 73.312 148.508 L 63.323 138.532 L 32.701 153.57 L 32.701 226.513 L 142.103 226.513 L 142.103 90.803 C 135.514 76.51 128.27 71.178 117.877 68.393 Z M 76.184 166.257 C 76.186 166.254 76.194 166.259 76.197 166.257 C 75.081 166.953 73.953 167.635 72.818 168.313 C 73.953 167.636 75.067 166.953 76.183 166.257 L 76.184 166.257 Z M 65.887 172.266 C 65.892 172.264 65.898 172.268 65.9 172.266 C 64.728 172.907 63.538 173.54 62.348 174.163 C 63.538 173.54 64.715 172.907 65.887 172.266 L 65.887 172.266 Z"/>
  </g>
  <g opacity=".2">
   <path fill="#090909" d="M 118.421 142.174 C 107.081 160.498 81.967 166.771 62.332 156.187 C 42.694 145.613 35.965 122.185 47.303 103.861 L 118.421 142.174 Z"/>
  </g>
  <path fill="#EAB305" d="M 118.421 137.385 C 107.081 155.708 81.967 161.982 62.332 151.398 C 42.694 140.824 35.965 117.395 47.303 99.072 L 118.421 137.385 Z"/>
  <path fill="#2C2C2C" d="M 80.633 117.031 L 80.633 118.228 C 78.565 128.789 82.638 141.41 93.139 155.307 C 93.259 155.278 93.383 155.263 93.503 155.232 C 88.378 145.448 89.215 134.541 94.205 124.336 L 80.633 117.031 Z"/>
  <g opacity=".2">
   <path fill="#090909" d="M 137.578 142.174 C 148.919 160.497 174.033 166.771 193.668 156.187 C 213.306 145.613 220.035 122.184 208.697 103.861 L 137.578 142.174 Z"/>
  </g>
  <path fill="#EAB305" d="M 137.578 137.385 C 148.919 155.708 174.033 161.982 193.668 151.398 C 213.306 140.824 220.035 117.395 208.697 99.072 L 137.578 137.385 Z"/>
  <path fill="#2C2C2C" d="M 175.367 117.031 L 175.367 118.228 C 177.435 128.789 173.362 141.409 162.861 155.306 C 162.741 155.278 162.617 155.262 162.497 155.231 C 167.622 145.448 166.785 134.541 161.795 124.336 L 175.367 117.031 Z"/>
 </g>
</svg>
